pictures/humo.svg

<svg width="82" height="21" viewBox="0 0 82 21" fill="none" xmlns="http://www.w3.org/2000/svg">
<path d="M19.7434 3.9826C19.7305 2.79426 19.3623 1.59666 18.3185 0.930902C17.2747 0.265335 15.9512 0.295029 15.1517 1.2825C15.087 1.36232 14.9482 1.50001 14.9889 1.61709C15.0297 1.73435 15.2814 1.70636 15.3869 1.75856C15.4695 1.80338 15.5371 1.87185 15.5813 1.95526C15.6253 2.03848 15.6439 2.13324 15.6348 2.22705C15.6348 2.45401 15.6255 4.62036 15.6181 7.60681L7.77098 7.56047C7.65614 6.0994 7.7427 4.62944 8.02838 3.1922C8.09121 2.87616 8.16334 2.56181 8.24477 2.24936C8.33361 1.90722 8.5798 1.48696 8.55399 1.13366C8.55304 1.08467 8.5369 1.0372 8.50767 0.997856C8.43725 0.910476 8.30399 0.925418 8.19485 0.953221C7.51681 1.13328 6.89136 1.47315 6.37012 1.94448C5.98706 2.29892 5.66399 2.71331 5.41324 3.17178C4.40644 4.98294 4.32861 7.54931 4.32861 7.54931C4.27679 9.20802 4.21206 12.5701 5.97036 16.0606C5.97036 16.0606 7.20475 18.5078 8.96665 19.1121C9.31459 19.2311 9.40893 19.1512 9.44044 19.1121C9.5773 18.9354 9.28308 18.6324 9.19614 18.4966C9.03632 18.2462 8.89718 17.9831 8.77968 17.71C8.54165 17.1438 8.36473 16.5533 8.25217 15.949C7.85887 14.1257 7.67247 12.2635 7.69695 10.3981H15.62V17.4218C15.6063 17.6497 15.657 17.8768 15.766 18.0771C15.8751 18.2774 16.038 18.4427 16.2363 18.5543C16.5006 18.6739 16.7838 18.7463 17.0729 18.7681C17.5732 18.8471 18.0827 18.8471 18.5831 18.7681C18.8784 18.7217 19.1548 18.5929 19.3807 18.3962C19.7305 18.0707 19.736 17.63 19.736 17.1856C19.736 13.6523 19.7676 10.1304 19.7638 6.6008C19.7613 5.73059 19.7546 4.85773 19.7434 3.9826Z" fill="white"/>
<path d="M8.89094 19.9863C5.69457 19.0565 4.44917 15.6442 3.7643 12.6931C3.61624 12.0496 3.47369 11.4174 3.39416 10.7592C3.13885 8.77495 3.14986 6.59366 3.79031 4.68018C3.30342 4.78987 3.08133 5.21203 2.79642 5.55417C1.75621 6.80379 1.67307 8.26353 1.62295 9.71401C1.53696 11.9161 2.01759 14.1035 3.0185 16.0644C3.43098 16.8425 3.93419 17.5686 4.51751 18.2272C5.10139 18.8759 5.76424 19.4482 6.49049 19.9305C5.31702 19.641 4.25859 19.0002 3.45528 18.0933C3.12689 17.6723 2.82811 17.2285 2.56142 16.7655C2.05422 15.8804 1.42136 14.7758 1.09734 13.2974C1.0068 12.8828 0.945678 12.4606 0.782813 12.4438C0.549525 12.4198 0.28302 13.2603 0.227593 13.4424C0.0816218 13.8994 0.0049353 14.3758 0 14.8558C0.0129077 15.9715 0.843936 18.1417 2.83533 19.6145C2.83533 19.6145 4.57502 20.9014 7.55101 20.9999C8.03827 21.0037 8.51643 20.8662 8.92795 20.6037C9.18516 20.4177 9.35903 20.1276 8.89094 19.9863Z" fill="white"/>
<path d="M60.6482 3.56867C60.6674 2.98367 60.619 2.3983 60.5038 1.82446C60.4827 1.65954 60.4396 1.4982 60.376 1.34463C60.2695 1.08494 60.0892 0.86252 59.8578 0.704971C59.6858 0.591301 59.4846 0.529833 59.2787 0.52832C59.1342 0.52832 58.99 0.539478 58.8455 0.539478C58.6456 0.539478 58.4476 0.539478 58.2478 0.539478C57.859 0.539478 57.4705 0.539478 57.0817 0.548746C56.9092 0.549124 56.7385 0.584303 56.5794 0.652013C56.4206 0.719724 56.2767 0.818643 56.1563 0.942905C55.8602 1.25346 55.6271 1.69604 55.231 2.64436C55.1643 2.80059 55.1144 2.9345 55.0774 3.02566C54.9312 3.34738 52.8398 7.89778 52.0515 9.21625C51.9942 9.31479 51.8664 9.52491 51.7036 9.51754C51.5407 9.50997 51.4148 9.31479 51.3575 9.21625C50.569 7.89778 48.4778 3.34738 48.3297 3.02566C48.2946 2.9345 48.2445 2.80059 48.1779 2.64436C47.7893 1.69604 47.5543 1.25346 47.2525 0.942905C47.1321 0.818643 46.9885 0.719724 46.8294 0.652013C46.6705 0.584303 46.4999 0.549124 46.3271 0.548746C45.9386 0.533804 45.5498 0.548746 45.1613 0.539478H44.5635C44.4191 0.539478 44.2748 0.530023 44.1303 0.52832C43.9244 0.529833 43.7232 0.591301 43.551 0.704971C43.3187 0.861386 43.1382 1.08419 43.0328 1.34463C42.9692 1.4982 42.9263 1.65954 42.9053 1.82446C42.7904 2.3983 42.7414 2.98348 42.7589 3.56867L42.3037 17.6178C42.3092 17.7226 42.3299 17.8259 42.3648 17.9246C42.6034 18.6089 43.4751 18.9474 44.1377 18.9567C44.8002 18.966 45.6183 18.6443 45.9015 18.0269C45.938 17.9433 45.9659 17.8559 45.9847 17.7667C46.1829 16.8127 46.2975 9.13076 46.3402 5.78344C48.163 9.54175 49.5918 12.3478 50.2507 13.5938C50.3858 13.8502 50.6726 14.3617 51.1983 14.5347C51.5181 14.6437 51.8649 14.6437 52.1848 14.5347C52.7104 14.3617 52.9972 13.8502 53.1304 13.5938C53.7912 12.3551 55.2181 9.54912 57.043 5.78344C57.0855 9.13076 57.2003 16.8127 57.3983 17.7667C57.4171 17.8559 57.445 17.9433 57.4817 18.0269C57.7666 18.6499 58.5716 18.9698 59.2453 18.9567C59.9189 18.9437 60.7777 18.6089 61.0184 17.9246C61.0523 17.8257 61.0728 17.7224 61.0795 17.6178C60.9449 12.9341 60.8012 8.25109 60.6482 3.56867Z" fill="white"/>
<path d="M38.6928 1.08529C38.3133 0.603567 37.6638 0.586923 37.0419 0.568388C36.4516 0.553446 35.7001 0.533021 35.2301 1.0573C35.0262 1.29429 34.9017 1.58972 34.8748 1.9016C34.8636 5.35805 34.8531 8.81431 34.8433 12.2708C34.8526 12.8329 34.7343 13.3899 34.4972 13.8994C34.2603 14.4087 33.9109 14.8572 33.4756 15.2107C32.8896 15.6434 32.1998 15.9124 31.4768 15.9899C31.362 15.9899 31.2435 16.0047 31.2435 16.0047H31.0584C31.0584 16.0047 30.9383 16.0047 30.8253 15.9899C30.1021 15.9124 29.4125 15.6434 28.8266 15.2107C28.3915 14.857 28.0424 14.4085 27.8059 13.899C27.5692 13.3897 27.4511 12.8329 27.4606 12.2708L27.4274 1.9016C27.4008 1.58991 27.2771 1.29448 27.074 1.0573C26.6019 0.533021 25.8525 0.553446 25.2602 0.568388C24.6384 0.586923 23.9905 0.603567 23.6111 1.08529C23.3981 1.38999 23.3117 1.76637 23.3706 2.13405V12.9866C23.3825 14.2973 23.822 15.5679 24.6217 16.6035C25.7044 18.0297 27.2423 18.6658 27.7161 18.8351C28.4247 19.0889 29.162 19.2525 29.911 19.3223C30.7403 19.3817 31.5729 19.3817 32.4022 19.3223C33.1512 19.2525 33.8887 19.0889 34.5971 18.8351C35.0708 18.649 36.609 18.0224 37.6898 16.6035C38.4904 15.5683 38.9308 14.2977 38.9426 12.9866V2.13405C38.9988 1.76505 38.9092 1.38867 38.6928 1.08529Z" fill="white"/>
<path d="M81.5486 6.30936C81.0271 4.56383 79.9636 3.03184 78.5134 1.9375C76.8678 0.68051 74.8578 0 72.7909 0C70.7238 0 68.7138 0.68051 67.0684 1.9375C65.6184 3.03241 64.5543 4.56421 64.0313 6.30936C62.5414 11.3116 64.7826 17.6936 70.1387 19.1032C71.8782 19.5025 73.6849 19.5025 75.4244 19.1032C80.799 17.6936 83.0383 11.3116 81.5486 6.30936ZM77.5675 11.8881C77.0123 14.2553 75.4412 16.8011 72.7909 16.8289C70.1406 16.8011 68.5748 14.2553 68.0141 11.8881C67.4737 9.60447 67.5735 6.91743 68.8451 4.8812C69.251 4.19313 69.8282 3.62326 70.5199 3.22722C71.2116 2.83136 71.9938 2.6233 72.79 2.6233C73.5859 2.6233 74.3683 2.83136 75.0598 3.22722C75.7515 3.62326 76.3287 4.19313 76.7348 4.8812C78.0081 6.92291 78.1062 9.60996 77.5675 11.8936V11.8881Z" fill="white"/>
</svg>

<svg width="82" height="21" fill="none" xmlns="http://www.w3.org/2000/svg"><path d="M19.743 3.983c-.012-1.189-.38-2.386-1.424-3.052-1.044-.666-2.368-.636-3.167.351-.065.08-.204.218-.163.335.04.117.292.09.398.142a.479.479 0 0 1 .248.468c0 .227-.01 2.393-.017 5.38L7.771 7.56a15.983 15.983 0 0 1 .474-5.31c.089-.343.335-.763.309-1.116a.235.235 0 0 0-.046-.136C8.438.91 8.304.925 8.195.953c-.678.18-1.304.52-1.825.991a4.828 4.828 0 0 0-.957 1.228C4.406 4.982 4.33 7.549 4.33 7.549c-.052 1.659-.117 5.021 1.641 8.512 0 0 1.235 2.447 2.997 3.051.348.12.442.04.473 0 .137-.177-.157-.48-.244-.615a5.508 5.508 0 0 1-.416-.787 8.615 8.615 0 0 1-.528-1.761 24.784 24.784 0 0 1-.555-5.55h7.923v7.023a1.218 1.218 0 0 0 .616 1.132c.265.12.548.192.837.214.5.08 1.01.08 1.51 0a1.59 1.59 0 0 0 .798-.372c.35-.325.355-.766.355-1.21 0-3.534.032-7.056.028-10.585-.003-.87-.01-1.743-.02-2.618Z" fill="#fff"/><path d="M8.89 19.986c-3.195-.93-4.44-4.342-5.126-7.293-.148-.643-.29-1.276-.37-1.934-.255-1.984-.244-4.165.396-6.079-.487.11-.709.532-.994.874-1.04 1.25-1.123 2.71-1.173 4.16a12.866 12.866 0 0 0 1.395 6.35 11.11 11.11 0 0 0 1.5 2.163A10.382 10.382 0 0 0 6.49 19.93a5.964 5.964 0 0 1-3.035-1.837 11.456 11.456 0 0 1-.894-1.328c-.507-.885-1.14-1.99-1.464-3.468-.09-.414-.151-.836-.314-.853-.233-.024-.5.816-.555.998A4.808 4.808 0 0 0 0 14.856c.013 1.116.844 3.286 2.835 4.758 0 0 1.74 1.287 4.716 1.386.487.004.965-.134 1.377-.396.257-.186.431-.476-.037-.618ZM60.648 3.569c.02-.585-.029-1.17-.144-1.745a1.877 1.877 0 0 0-.128-.48 1.43 1.43 0 0 0-.518-.639 1.065 1.065 0 0 0-.58-.177c-.144 0-.288.011-.432.011h-.598c-.389 0-.777 0-1.166.01a1.29 1.29 0 0 0-.926.394c-.296.31-.529.753-.925 1.701-.067.157-.117.29-.154.382-.146.321-2.237 4.872-3.026 6.19-.057.099-.185.309-.347.302-.163-.008-.29-.203-.346-.302-.789-1.318-2.88-5.869-3.028-6.19-.035-.091-.085-.225-.152-.382-.389-.948-.624-1.39-.925-1.701a1.295 1.295 0 0 0-.926-.394c-.388-.015-.777 0-1.166-.01h-.598c-.144 0-.288-.009-.433-.01a1.066 1.066 0 0 0-.579.176c-.232.156-.413.38-.518.64a1.872 1.872 0 0 0-.128.48 7.71 7.71 0 0 0-.146 1.744l-.455 14.049c.005.105.026.208.06.307.24.684 1.111 1.022 1.774 1.032.662.009 1.48-.313 1.764-.93.036-.084.064-.171.083-.26.198-.954.313-8.636.355-11.984 1.823 3.759 3.252 6.565 3.91 7.81.136.257.423.769.948.942.32.109.667.109.987 0 .525-.173.812-.685.945-.941.661-1.239 2.088-4.045 3.913-7.81.043 3.347.157 11.029.355 11.983.02.089.047.176.084.26.285.623 1.09.943 1.763.93.674-.013 1.533-.348 1.773-1.032.034-.1.055-.203.062-.307-.135-4.684-.279-9.367-.432-14.05ZM38.693 1.085c-.38-.481-1.03-.498-1.651-.517-.59-.015-1.342-.035-1.812.49a1.491 1.491 0 0 0-.355.844l-.032 10.369a3.715 3.715 0 0 1-1.367 2.94 4.101 4.101 0 0 1-2 .779 2.17 2.17 0 0 0-.232.015h-.186s-.12 0-.233-.015a4.1 4.1 0 0 1-1.998-.78 3.715 3.715 0 0 1-1.366-2.94l-.034-10.368a1.493 1.493 0 0 0-.353-.845C26.602.533 25.852.553 25.26.568c-.622.019-1.27.036-1.649.517-.213.305-.3.681-.24 1.049v10.853a6.008 6.008 0 0 0 1.25 3.617c1.083 1.426 2.621 2.062 3.095 2.231a8.98 8.98 0 0 0 2.195.487c.83.06 1.662.06 2.491 0a8.978 8.978 0 0 0 2.195-.487c.474-.186 2.012-.813 3.093-2.232a6.001 6.001 0 0 0 1.253-3.616V2.134a1.434 1.434 0 0 0-.25-1.049ZM81.549 6.31a8.537 8.537 0 0 0-3.036-4.372 9.425 9.425 0 0 0-11.445 0 8.554 8.554 0 0 0-3.037 4.371c-1.49 5.003.752 11.385 6.108 12.794 1.74.4 3.546.4 5.285 0 5.375-1.41 7.614-7.791 6.125-12.794Zm-3.982 5.578c-.555 2.367-2.126 4.913-4.776 4.94-2.65-.027-4.216-2.573-4.777-4.94-.54-2.284-.44-4.97.831-7.007a4.597 4.597 0 0 1 1.675-1.654 4.57 4.57 0 0 1 4.54 0 4.599 4.599 0 0 1 1.675 1.654c1.273 2.042 1.371 4.729.832 7.013v-.006Z" fill="#fff"/></svg>
